svg/icon/xpa.svg

<svg xmlns="http://www.w3.org/2000/svg" xmlns:xlink="http://www.w3.org/1999/xlink" width="32" height="32" viewBox="0 0 32 32"><defs><linearGradient id="xpa-c" x1="50%" x2="50%" y1="0%" y2="100%"><stop offset="0%" stop-color="#FFF" stop-opacity=".5"/><stop offset="100%" stop-opacity=".5"/></linearGradient><circle id="xpa-b" cx="16" cy="15" r="15"/><filter id="xpa-a" width="111.7%" height="111.7%" x="-5.8%" y="-4.2%" filterUnits="objectBoundingBox"><feOffset dy=".5" in="SourceAlpha" result="shadowOffsetOuter1"/><feGaussianBlur in="shadowOffsetOuter1" result="shadowBlurOuter1" stdDeviation=".5"/><feComposite in="shadowBlurOuter1" in2="SourceAlpha" operator="out" result="shadowBlurOuter1"/><feColorMatrix in="shadowBlurOuter1" values="0 0 0 0 0 0 0 0 0 0 0 0 0 0 0 0 0 0 0.199473505 0"/></filter><path id="xpa-e" d="M25.574504,11.8463471 L17.4653767,9.52156048 L14.6910159,14.2472518 L11.4694952,10.509649 L12.9288266,10.3219585 L14.4341524,12.0896067 L16.1042059,9.13112947 L8.75332546,7.02369923 C8.31792128,6.8988134 7.90911451,7.28736316 8.0177084,7.72323351 L11.2740556,20.800357 L14.771396,14.9117659 L17.9932106,18.6492239 L16.5337322,18.8369144 L15.0285533,17.0692663 L11.7190113,22.5855152 L12.2096676,24.5561933 C12.3181145,24.9917742 12.8625535,25.1480624 13.1893637,24.8369332 L25.818877,12.8266212 C26.1456873,12.5159261 26.0099082,11.9710882 25.574651,11.8463471 L25.574504,11.8463471 Z"/><filter id="xpa-d" width="119.4%" height="119.4%" x="-9.7%" y="-6.9%" filterUnits="objectBoundingBox"><feOffset dy=".5" in="SourceAlpha" result="shadowOffsetOuter1"/><feGaussianBlur in="shadowOffsetOuter1" result="shadowBlurOuter1" stdDeviation=".5"/><feColorMatrix in="shadowBlurOuter1" values="0 0 0 0 0 0 0 0 0 0 0 0 0 0 0 0 0 0 0.204257246 0"/></filter></defs><g fill="none" fill-rule="evenodd"><use fill="#000" filter="url(#xpa-a)" xlink:href="#xpa-b"/><use fill="#4FA784" xlink:href="#xpa-b"/><use fill="url(#xpa-c)" style="mix-blend-mode:soft-light" xlink:href="#xpa-b"/><circle cx="16" cy="15" r="14.5" stroke="#000" stroke-opacity=".097"/><g><use fill="#000" filter="url(#xpa-d)" xlink:href="#xpa-e"/><use fill="#FFF" xlink:href="#xpa-e"/></g></g></svg>

<svg xmlns="http://www.w3.org/2000/svg" xmlns:xlink="http://www.w3.org/1999/xlink" width="32" height="32" viewBox="0 0 32 32"><defs><linearGradient id="c" x1="50%" x2="50%" y1="0%" y2="100%"><stop offset="0%" stop-color="#FFF" stop-opacity=".5"/><stop offset="100%" stop-opacity=".5"/></linearGradient><circle id="b" cx="16" cy="15" r="15"/><filter id="a" width="111.7%" height="111.7%" x="-5.8%" y="-4.2%" filterUnits="objectBoundingBox"><feOffset dy=".5" in="SourceAlpha" result="shadowOffsetOuter1"/><feGaussianBlur in="shadowOffsetOuter1" result="shadowBlurOuter1" stdDeviation=".5"/><feComposite in="shadowBlurOuter1" in2="SourceAlpha" operator="out" result="shadowBlurOuter1"/><feColorMatrix in="shadowBlurOuter1" values="0 0 0 0 0 0 0 0 0 0 0 0 0 0 0 0 0 0 0.199473505 0"/></filter><path id="e" d="M25.575 11.846l-8.11-2.324-2.774 4.725-3.222-3.737 1.46-.188 1.505 1.768 1.67-2.959-7.35-2.107a.586.586 0 0 0-.736.7L11.274 20.8l3.497-5.888 3.222 3.737-1.46.188-1.504-1.768-3.31 5.517.49 1.97a.59.59 0 0 0 .98.28l12.63-12.01a.58.58 0 0 0-.244-.98z"/><filter id="d" width="119.4%" height="119.4%" x="-9.7%" y="-6.9%" filterUnits="objectBoundingBox"><feOffset dy=".5" in="SourceAlpha" result="shadowOffsetOuter1"/><feGaussianBlur in="shadowOffsetOuter1" result="shadowBlurOuter1" stdDeviation=".5"/><feColorMatrix in="shadowBlurOuter1" values="0 0 0 0 0 0 0 0 0 0 0 0 0 0 0 0 0 0 0.204257246 0"/></filter></defs><g fill="none" fill-rule="evenodd"><use fill="#000" filter="url(#a)" xlink:href="#b"/><use fill="#4FA784" xlink:href="#b"/><use fill="url(#c)" style="mix-blend-mode:soft-light" xlink:href="#b"/><circle cx="16" cy="15" r="14.5" stroke="#000" stroke-opacity=".097"/><use fill="#000" filter="url(#d)" xlink:href="#e"/><use fill="#FFF" xlink:href="#e"/></g></svg>
